X: 93
T: Boże, któremu pomsta należy sprawnie,
C: Mikołaj Gomółka
%%abc-version 2.0
%%abcx-abcm2ps-target-version 5.9.1 (29 Sep 2008)
%%abc-creator hum2abc beta
%%abcx-conversion-date 2021/10/04 07:59:09
%%abc-edited-by Anna Matuszewska
%%abcx-initial-encoding-date 2020-02-17
%%humdrum-veritas 1707018165
%%humdrum-veritas-data 3901191231
%%linebreak <none>
%%barnumbers 0
L: 1/4
M: C|
N: Derived from pl-wn--sd-xvi-qu-273--094_gomolka-mikolaj--boze-ktoremu-pomsta-nalezy-sprawnie.krn
%%staves [1 2 3 4]
V: 1
V: 2
V: 3 clef=alto
V: 4 clef=bass
K: F
[V:1] B4A2_B2 [I:setbarnb 3][|] 
[V:2] D4D2D2 [|] 
[V:3] G4^F2G2 [|] 
[V:4] G,4D,2G,2 [|] 
[V:1] ^c2d4^c2 [|] 
[V:2] A2A2B2AG [|] 
[V:3] E2D2G>FE/D/E [|] 
[V:4] A,2^F,2G,2A,2 [|] 
[V:1] d2B2e2e2 [|] 
[V:2] A2G2G3F [|] 
[V:3] F2D2_E2B,2 [|] 
[V:4] D,2G,2_E,3D, [|] 
[V:1] e4d2d2 [|] 
[V:2] _E2>F2GABA [|] 
[V:3] C4=B,2D3 [|] 
[V:4] C,2C,2G,,2G,2 [|] 
[V:1] B2>B2G2G2 [|] 
[V:2] G2G2>G2_E2 [|] 
[V:3] B,2<B,2G,G,2 [|] 
[V:4] G,2_E,2>E,2E,2 [|] 
[V:1] c2>B2AGFE [|] 
[V:2] E2C2FEDC [|] 
[V:3] G,4A,2B,2 [|] 
[V:4] C,4F,,2B,,2 [|] 
[V:1] D2D4C2 [|] 
[V:2] B,A,A,2B,2G,2 [|] 
[V:3] F,2F,2G,4 [|] 
[V:4] D,2F,2_E,4 [|] 
[V:1] D2d2d3d [|] 
[V:2] A,2F2F3F [|] 
[V:3] ^F,2A,2B,3B, [|] 
[V:4] D,2D,2B,,3B,, [|] 
[V:1] c4B2d2 [|] 
[V:2] F2>E2D2B3 [|] 
[V:3] A,B,A,2B,2D2 [|] 
[V:4] F,2F,,2B,,2B,,2 [|] 
[V:1] B2>B2c2B4 [|] 
[V:2] AG2G2F2 [|] 
[V:3] _E2>E2E2D2 [|] 
[V:4] E,2>E,2C,2D,2 [|] 
[V:1] A2B2F2 [|] 
[V:2] G2FED2D2 [|] 
[V:3] C4B,2A,2 [|] 
[V:4] E,2F,2B,,2D,2 [|] 
[V:1] G2F4E2 [|] 
[V:2] C2C2B,4 [|] 
[V:3] G,2A,2B,4 [|] 
[V:4] E,2F,2G,4 [|] 
[V:1] F2A2B2A2 [|] 
[V:2] A,2_F2B,2C2 [|] 
[V:3] C2A,2D3C [|] 
[V:4] F,2F,,2G,,2A,,2 [|] 
[V:1] G2G4G2 [|] 
[V:2] D2E2D3C [|] 
[V:3] B,G,CB,A,G,A,2 [|] 
[V:4] B,,2C,2D,4 [|] 
[V:1] G8 [|] 
[V:2] =B,8 [|] 
[V:3] G,8 [|] 
[V:4] G,,8 [|] 


